src/48/apps/cs-themes.svg

<?xml version="1.0" encoding="UTF-8" standalone="no"?>
<svg
   xmlns:dc="http://purl.org/dc/elements/1.1/"
   xmlns:cc="http://creativecommons.org/ns#"
   xmlns:rdf="http://www.w3.org/1999/02/22-rdf-syntax-ns#"
   xmlns:svg="http://www.w3.org/2000/svg"
   xmlns="http://www.w3.org/2000/svg"
   xmlns:sodipodi="http://sodipodi.sourceforge.net/DTD/sodipodi-0.dtd"
   xmlns:inkscape="http://www.inkscape.org/namespaces/inkscape"
   height="48"
   width="48"
   version="1.1"
   id="svg220"
   sodipodi:docname="cs-themes.svg"
   inkscape:version="0.92.4 (5da689c313, 2019-01-14)">
  <metadata
     id="metadata224">
    <rdf:RDF>
      <cc:Work
         rdf:about="">
        <dc:format>image/svg+xml</dc:format>
        <dc:type
           rdf:resource="http://purl.org/dc/dcmitype/StillImage" />
        <dc:title></dc:title>
      </cc:Work>
    </rdf:RDF>
  </metadata>
  <sodipodi:namedview
     pagecolor="#ffffff"
     bordercolor="#666666"
     borderopacity="1"
     objecttolerance="10"
     gridtolerance="10"
     guidetolerance="10"
     inkscape:pageopacity="0"
     inkscape:pageshadow="2"
     inkscape:window-width="1366"
     inkscape:window-height="697"
     id="namedview222"
     showgrid="true"
     inkscape:zoom="3.4766083"
     inkscape:cx="-29.436407"
     inkscape:cy="37.764425"
     inkscape:window-x="0"
     inkscape:window-y="0"
     inkscape:window-maximized="1"
     inkscape:current-layer="svg220">
    <inkscape:grid
       type="xygrid"
       id="grid1051" />
  </sodipodi:namedview>
  <defs
     id="defs86" />
  <path
     style="opacity:1;fill:#f9f9f9;fill-opacity:1;stroke:#000000;stroke-width:2;stroke-miterlimit:4;stroke-dasharray:none;stroke-opacity:0.13725491;paint-order:stroke markers fill"
     d="M 9,5 1,16 9,22 V 43 H 39 V 22 L 47,16 39,5 H 34 C 33.999987,7.7373157 29.467795,9.9569814 24,9.9569814 18.532206,9.9569814 14.00001,7.7373157 14,5 Z"
     id="path1060"
     inkscape:connector-curvature="0"
     sodipodi:nodetypes="cccccccccscc" />
  <path
     sodipodi:nodetypes="cccccccccscc"
     inkscape:connector-curvature="0"
     id="path829"
     d="M 9,5 1,16 9,22 V 43 H 39 V 22 L 47,16 39,5 H 34 C 33.999987,7.7373157 29.467795,9.9569814 24,9.9569814 18.532206,9.9569814 14.00001,7.7373157 14,5 Z"
     style="opacity:1;fill:#ffffff;fill-opacity:1;stroke:none;stroke-width:1.99999988;stroke-miterlimit:4;stroke-dasharray:none;stroke-opacity:0.03921569;paint-order:stroke markers fill" />
  <path
     style="opacity:0.75;fill:#71ffb2;fill-opacity:1;stroke:none;stroke-width:2.58198881;stroke-miterlimit:4;stroke-dasharray:none;stroke-opacity:0.03921569;paint-order:stroke markers fill"
     d="m 32.425914,35.380913 c -1.054464,0 -2.108616,0.40428 -2.916601,1.213276 l -6.397185,6.405191 h 11.668014 l 0.562373,-0.563076 c 1.61597,-1.617991 1.61597,-4.224123 0,-5.842115 -0.807985,-0.808996 -1.862137,-1.213276 -2.916601,-1.213276 z"
     id="rect828"
     inkscape:connector-curvature="0" />
  <path
     style="opacity:0.75;fill:#ff522c;fill-opacity:1;stroke:none;stroke-width:2.58198881;stroke-miterlimit:4;stroke-dasharray:none;stroke-opacity:0.03921569;paint-order:stroke markers fill"
     d="M 39,38.043021 34.049835,42.99938 H 39 Z"
     id="rect832"
     inkscape:connector-curvature="0" />
  <path
     style="opacity:0.75;fill:#4997ff;fill-opacity:1;stroke:none;stroke-width:2.58198881;stroke-miterlimit:4;stroke-dasharray:none;stroke-opacity:0.03921569;paint-order:stroke markers fill"
     d="m 30.717849,29.540411 c -1.054463,0 -2.108615,0.404279 -2.9166,1.213275 L 15.570862,42.99938 h 11.666403 l 6.397185,-6.405191 c 1.61597,-1.617992 1.61597,-4.222511 0,-5.840503 -0.807985,-0.808996 -1.862136,-1.213275 -2.916601,-1.213275 z"
     id="rect826"
     inkscape:connector-curvature="0" />
  <path
     style="opacity:0.75;fill:#ff4b20;fill-opacity:1;stroke:none;stroke-width:2.58198881;stroke-miterlimit:4;stroke-dasharray:none;stroke-opacity:0.03921569;paint-order:stroke markers fill"
     d="m 19.1936,33.673938 c -1.054464,0 -2.108617,0.40428 -2.916601,1.213276 L 9,42.17332 v 0.82606 H 19.842986 L 22.1102,40.729329 c 1.61597,-1.617992 1.61597,-4.224124 0,-5.842115 -0.807984,-0.808996 -1.862137,-1.213276 -2.9166,-1.213276 z"
     id="rect830"
     inkscape:connector-curvature="0" />
  <path
     style="opacity:0.75;fill:#ffef4d;fill-opacity:1;stroke:none;stroke-width:2.58198881;stroke-miterlimit:4;stroke-dasharray:none;stroke-opacity:0.03921569;paint-order:stroke markers fill"
     d="m 10.767685,35.322831 c -0.606671,0 -1.2079543,0.150083 -1.767685,0.41787 v 7.258679 h 4.062293 l 0.621993,-0.622771 c 1.615969,-1.617992 1.615969,-4.222511 0,-5.840503 -0.807985,-0.808996 -1.862137,-1.213275 -2.916601,-1.213275 z"
     id="rect834"
     inkscape:connector-curvature="0" />
</svg>

<svg xmlns="http://www.w3.org/2000/svg" height="48" width="48"><path d="M9 5L1 16l8 6v21h30V22l8-6-8-11h-5c0 2.737-4.532 4.957-10 4.957S14 7.737 14 5z" fill="#f9f9f9" stroke="#000" stroke-width="2" stroke-opacity=".137" paint-order="stroke markers fill"/><path d="M9 5L1 16l8 6v21h30V22l8-6-8-11h-5c0 2.737-4.532 4.957-10 4.957S14 7.737 14 5z" fill="#fff" paint-order="stroke markers fill"/><path d="M32.426 35.38a4.109 4.109 0 0 0-2.917 1.214L23.112 43H34.78l.563-.563a4.126 4.126 0 0 0 0-5.842 4.109 4.109 0 0 0-2.917-1.213z" opacity=".75" fill="#71ffb2" paint-order="stroke markers fill"/><path d="M39 38.043l-4.95 4.956H39z" opacity=".75" fill="#ff522c" paint-order="stroke markers fill"/><path d="M30.718 29.54a4.109 4.109 0 0 0-2.917 1.214l-12.23 12.245h11.666l6.397-6.405a4.124 4.124 0 0 0 0-5.84 4.109 4.109 0 0 0-2.916-1.214z" opacity=".75" fill="#4997ff" paint-order="stroke markers fill"/><path d="M19.194 33.674a4.109 4.109 0 0 0-2.917 1.213L9 42.173V43h10.843l2.267-2.27a4.126 4.126 0 0 0 0-5.842 4.109 4.109 0 0 0-2.916-1.213z" opacity=".75" fill="#ff4b20" paint-order="stroke markers fill"/><path d="M10.768 35.323c-.607 0-1.208.15-1.768.418v7.258h4.062l.622-.622a4.124 4.124 0 0 0 0-5.84 4.109 4.109 0 0 0-2.916-1.214z" opacity=".75" fill="#ffef4d" paint-order="stroke markers fill"/></svg>
